svg/dozzle-light.svg

<svg xmlns="http://www.w3.org/2000/svg" xml:space="preserve" viewBox="0 0 512 512"><path d="M371.6 199c-19 0-34.4 15.4-34.4 34.4s15.4 34.4 34.4 34.4 34.4-15.4 34.4-34.4-15.4-34.4-34.4-34.4m-227.1 0c-19 0-34.4 15.4-34.4 34.4s15.4 34.4 34.4 34.4 34.4-15.4 34.4-34.4-15.4-34.4-34.4-34.4m-95.8-43.3c-6.4-6.5-10.1-15.2-10.1-24.3 0-19 15.3-34.4 34.2-34.4h.2c8.8 0 17.6 3.3 24.3 10.1l-8 5.9C137.5 75.3 196.9 55 258 55.1c63.6 0 122.1 21.6 168.7 57.8l-8-5.9c6.4-6.5 15.2-10.1 24.3-10.1 8.8 0 17.6 3.3 24.3 10.1 6.4 6.5 10 15.2 10 24.3s-3.6 17.9-10 24.4l8 5.9c116.3 116.3-81.7 168.7-81.7 168.7H122.3c-5.7 0-206.1-44.3-81.7-168.7zm390.7 297.4c-23.1 0-41.8-18.7-41.8-41.8s18.7-41.8 41.8-41.8 41.8 18.7 41.8 41.8c.1 23.1-18.6 41.8-41.8 41.8m-343.8 3.8c-23.1 0-41.8-18.7-41.9-41.8 0-23.1 18.7-41.8 41.8-41.8s41.9 18.7 41.9 41.8c.1 23.1-18.7 41.8-41.8 41.8m37.2-118h251.3s-121.8 41.9-251.3 0" style="fill:#fff"/></svg>

<?xml version="1.0" encoding="utf-8"?>
<!-- Generator: Adobe Illustrator 28.2.0, SVG Export Plug-In . SVG Version: 6.00 Build 0)  -->
<svg version="1.1" id="Layer_1" xmlns="http://www.w3.org/2000/svg" xmlns:xlink="http://www.w3.org/1999/xlink" x="0px" y="0px"
	 viewBox="0 0 512 512" style="enable-background:new 0 0 512 512;" xml:space="preserve">
<style type="text/css">
	.st0{fill:#FFFFFF;}
</style>
<path class="st0" d="M371.6,199c-19,0-34.4,15.4-34.4,34.4s15.4,34.4,34.4,34.4s34.4-15.4,34.4-34.4S390.6,199,371.6,199 M144.5,199
	c-19,0-34.4,15.4-34.4,34.4s15.4,34.4,34.4,34.4l0,0c19,0,34.4-15.4,34.4-34.4S163.5,199,144.5,199 M48.7,155.7
	c-6.4-6.5-10.1-15.2-10.1-24.3c0-19,15.3-34.4,34.2-34.4c0.1,0,0.1,0,0.2,0c8.8,0,17.6,3.3,24.3,10.1l-8,5.9
	C137.5,75.3,196.9,55,258,55.1c63.6,0,122.1,21.6,168.7,57.8l-8-5.9c6.4-6.5,15.2-10.1,24.3-10.1c8.8,0,17.6,3.3,24.3,10.1
	c6.4,6.5,10,15.2,10,24.3s-3.6,17.9-10,24.4l8,5.9c116.3,116.3-81.7,168.7-81.7,168.7H122.3c-5.7,0-206.1-44.3-81.7-168.7
	L48.7,155.7z M439.4,453.1c-23.1,0-41.8-18.7-41.8-41.8l0,0c0-23.1,18.7-41.8,41.8-41.8c23.1,0,41.8,18.7,41.8,41.8l0,0
	C481.3,434.4,462.6,453.1,439.4,453.1L439.4,453.1 M95.6,456.9c-23.1,0-41.8-18.7-41.9-41.8l0,0c0-23.1,18.7-41.8,41.8-41.8l0,0
	c23.1,0,41.9,18.7,41.9,41.8l0,0C137.5,438.2,118.7,456.9,95.6,456.9L95.6,456.9 M132.8,338.9h251.3
	C384.1,338.9,262.3,380.8,132.8,338.9"/>
</svg>
